icons/themes/default/signature.svg

<svg viewBox="0 0 20 20" fill="none" xmlns="http://www.w3.org/2000/svg">
<path d="M6.13636 13.8636H13.8636M17.5 14.5909V5.40909C17.5 4.39081 17.5 3.88168 17.3018 3.49274C17.1275 3.15063 16.8494 2.87248 16.5073 2.69817C16.1183 2.5 15.6092 2.5 14.5909 2.5H5.40909C4.39081 2.5 3.88168 2.5 3.49274 2.69817C3.15063 2.87248 2.87249 3.15063 2.69817 3.49274C2.5 3.88168 2.5 4.39081 2.5 5.40909V14.5909C2.5 15.6092 2.5 16.1183 2.69817 16.5073C2.87249 16.8494 3.15063 17.1275 3.49274 17.3018C3.88168 17.5 4.39081 17.5 5.40909 17.5H14.5909C15.6092 17.5 16.1183 17.5 16.5073 17.3018C16.8494 17.1275 17.1275 16.8494 17.3018 16.5073C17.5 16.1183 17.5 15.6092 17.5 14.5909Z" stroke="currentColor" stroke-width="1.1" stroke-linecap="square"/>
</svg>

<svg xmlns="http://www.w3.org/2000/svg" fill="none" viewBox="0 0 20 20">
  <path stroke="currentColor" stroke-linecap="square" stroke-width="1.1" d="M6.136 13.864h7.728m3.636.727V5.409c0-1.018 0-1.527-.198-1.916a1.818 1.818 0 0 0-.795-.795c-.389-.198-.898-.198-1.916-.198H5.409c-1.018 0-1.527 0-1.916.198-.342.174-.62.453-.795.795-.198.389-.198.898-.198 1.916v9.182c0 1.018 0 1.527.198 1.916.174.342.453.62.795.795.389.198.898.198 1.916.198h9.182c1.018 0 1.527 0 1.916-.198.342-.174.62-.453.795-.795.198-.389.198-.898.198-1.916Z"/>
</svg>
